X:2191
L:1/4
M:3/4
K:C
 g |"C" e2 c | z a3/2 g/ |"G7" f2 d | z d3/2 c/ | B2 d | G e3/2 d/ |"C" c2 E | z g3/2 f/ | e2 c | 
 z a3/2 g/ |"Dm" f2 d | z d3/2 c/ |"G7" B2 d | G e3/2 d/ |"C" c3/2 c/ c | c z c' ||"G7" b a g | 
 f e d |"C" c2 g | e2 c |"G7" B2 g | f2 B |"C" c e g | c'3 |"G7" b a g | f e d |"C" c2 g | e2 c | 
"G7" B2 g | f2 b |"C" c'3/2 c'/ c' | c' z A ||[K:F]"F" c2 e/f/ |"Bb" d2 e/f/ |"F" c2 f/a/ | 
 .c' .=b .c' |"C7" d'3/2 d'/ e | z d c |"F" a3/2 a/ f | z A B | c2 e/f/ |"Bb" d2 e/f/ | 
"F" c2 f/a/ | .c' .=b .c' |"C7" d'3/2 d'/ e | z a g |"F" f3/2 f/ f | f z A ||"F" c =B/c/ d/c/ | 
 c3/2 a/ f | a g3/2 f/ |"C7" f2 e | c =B/c/ d/c/ | c'3/2 b/ g | b a3/2 g/ |"F" g2 f | 
 c =B/c/ d/c/ | c3/2 a/ f |"Gm" e2 d | g f3/2 d/ |"F" d2 c |"C7" e/e/ e e |"F" f |]

